X: 1400
T: Drover's Dream
C:Robert Martin, (1846 -?)
B: australian traditional tunes wiki
M:4/4
L:1/8
R: Schottische
Q: 1/4=100
K:G
V:1 
D2|"G"G>A B>A G2 D>D|"C"E>F G>E "G"D2 D>D|G>G G>A B>B A>G|"D7"A6 D>D|
"G"G>A B>A G2 D>D|"C"E>F G>E "G"D2 D>D|B>B B>G "D7"A>A A>F|"G"G6 A>B|
"C"c>c c>c c2 B>c|"G"d>d d>B G2 G>D|G>G G>A B>B A>G|"D7"A6 D>D|
"G"G>A B>A G2 D>D|"C"E>F G>E "G"D2 D>D|B>B B>G "D7"A>A A>F|"G"G6||
% abcbook-tune_id 6342d53ac0bd7b3f25c4904c


% abcbook-boost 0
% abcbook-tablature 
% abcbook-transpose 
% abcbook-lastupdated 1665324363199
% abcbook-soundfonts 
% abcbook-repeats 1
% NFF Book 2019
% Bush Traditions recording played by Ray Mulligan

